X: 34645
T: Road To Bangor
R: jig
M: 6/8
K: Eminor
B2E EFG|F2B, B,^C^D|E2G GFE|A3 AGF|
EGB BGG|A2d d2d|efg gfe|f^dB B^c^d|
e2g gfe|f^dB B^c^d|e2g gfe|dcB AGF|
E^DE FEF|GAB c2A|GFE B,E^D|E2E F2G||
|:B2G d2B|AFD DEF|G2B BAG|FAF B,^C^D|
E^DE FEF|GAB c2A|GFE B,E^D|1 E2E F2G:|2 E3 E3||

